<jittershader name="shdrOne">
	<description>
	</description>
	<language name="glsl" version="1.0">
		<program name="vp" type="vertex" source="sh.passthru.xform.vp.glsl" />
		<program name="fp" type="fragment">
<![CDATA[

// entry point
void main()
{
	// result either blend or mask based on mode
	gl_FragColor = vec4(1.0, 1.0, 1.0, 1.0);

	// setting the fragment color is a useful means of debugging
}

]]>
		</program>
	</language>
</jittershader>
